X:1
T: Willie With his Tartan Trews
C:
R:Jig
Q:180
K:A
M:6/8
L:1/16
|:f2|e2c2A2 d2e2f2|e2c2e2 d4f2|e2c2A2 e2d2c2|B2c2B2 d4f2|
e2c2A2 d2e2f2|e2c2f2 c4e2|f2a2f2 e2d2c2|B2c2B2 d4f2|
e2c2A2 a2c2A2|e2c2A2 d4f2|e2c2A2 a2c2A2|B2c2B2 d4f2|
e2c2A2 a2c2A2|e2c2A2 c2d2e2|f2a2f2 e2c2A2|B2c2B2 d4|:|
